X: 168
T: Hao hua hong
%%abc-version 2.0
%%abcx-abcm2ps-target-version 5.9.1 (29 Sep 2008)
%%abc-creator hum2abc beta
%%abcx-conversion-date 2013/10/02 07:44:27
%%abc-edited-by Helmut Schaffrath
%%humdrum-veritas 3047594952
%%humdrum-veritas-data 2033977845
%%continueall 1
%%barnumbers 0
L: 1/4
M: 4/4
K: G
B,E2B [I:setbarnb 1]| 
A/ G/B2A/ B/ | 
[M:3/4]BAG | 
[M:4/4]E3G | 
BA/ B/EGA | 
[M:3/4]BEA/ G/ | 
E3- | 
Ez2 | 
[M:4/4]B,E2B | 
A/ G/B2A/ B/ | 
[M:3/4]BAG | 
[M:4/4]E3G | 
BA/ B/EGA | 
[M:3/4]BEA/ G/ | 
E3- | 
Ez2 |]  



